resources/svg/solid/calendar.svg

<svg xmlns="http://www.w3.org/2000/svg" fill="currentColor" stroke="none" viewBox="0 0 24 24"><path d="M21 20V6c0-1.103-.897-2-2-2h-2V2h-2v2H9V2H7v2H5c-1.103 0-2 .897-2 2v14c0 1.103.897 2 2 2h14c1.103 0 2-.897 2-2zM9 18H7v-2h2v2zm0-4H7v-2h2v2zm4 4h-2v-2h2v2zm0-4h-2v-2h2v2zm4 4h-2v-2h2v2zm0-4h-2v-2h2v2zm2-5H5V7h14v2z"/></svg>

<svg xmlns="http://www.w3.org/2000/svg" fill="currentColor" stroke="none" viewBox="0 0 24 24"><path d="M21,20V6c0-1.103-0.897-2-2-2h-2V2h-2v2H9V2H7v2H5C3.897,4,3,4.897,3,6v14c0,1.103,0.897,2,2,2h14 C20.103,22,21,21.103,21,20z M9,18H7v-2h2V18z M9,14H7v-2h2V14z M13,18h-2v-2h2V18z M13,14h-2v-2h2V14z M17,18h-2v-2h2V18z M17,14 h-2v-2h2V14z M19,9H5V7h14V9z"/></svg>
